!!!COM: Webern, Anton : von
!!!OPS: Opus 24
!!!OMV: Mov. 1
!!!OTL: Concerto
!!!YEC: Copyright 1994, David Huron
!!!CDT: 1993/12/3-1945/9/15
!!!RDF1: V=Flatterzunge, flutter-tongue
!!!RDF2: U=mute
!! "Etwas lebhaft"
**kern	**kern	**kern	**kern	**kern	**kern	**kern	**kern	**kern	**kern
*ICklav	*ICklav	*ICstr	*ICstr	*ICbras	*ICbras	*ICbras	*ICww	*ICww	*ICww
*Ipiano	*Ipiano	*Iviola	*Ivioln	*Itromb	*Icor	*Itromp	*Iclars	*Ioboe	*Iflt
*M2/4	*M2/4	*M2/4	*M2/4	*M2/4	*M2/4	*M2/4	*M2/4	*M2/4	*M2/4
*MM80	*MM80	*MM80	*MM80	*MM80	*MM80	*MM80	*MM80	*MM80	*MM80
*k[]	*k[]	*k[]	*k[]	*k[]	*k[]	*k[]	*k[]	*k[]	*k[]
*X:	*X:	*X:	*X:	*X:	*X:	*X:	*X:	*X:	*X:
=1	=1	=1	=1	=1	=1	=1	=1	=1	=1
2r	2r	2r	2r	2r	2r	2r	2r	8r	4r
.	.	.	.	.	.	.	.	(16bbn	.
.	.	.	.	.	.	.	.	16b-	.
.	.	.	.	.	.	.	.	16ddn)	8eee-'^
.	.	.	.	.	.	.	.	16r	.
.	.	.	.	.	.	.	.	8r	8gggn'^
=2	=2	=2	=2	=2	=2	=2	=2	=2	=2
2r	2r	2r	2r	2r	(12g#	2r	6r	2r	8ff#'^
.	.	.	.	.	12en	.	.	.	8r
.	.	.	.	.	12ffn)	.	6ccn~	.	.
.	.	.	.	.	4r	.	.	.	4r
.	.	.	.	.	.	.	6ccc#~	.	.
=3	=3	=3	=3	=3	=3	=3	=3	=3	=3
2r	2r	2r	2r	2r	2r	2r	6aan~	2r	2r
.	.	.	.	.	.	.	6r	.	.
.	.	.	.	.	.	.	6r	.	.
=4	=4	=4	=4	=4	=4	=4	=4	=4	=4
12ddn'^	4r	2r	2r	2r	2r	2r	2r	2r	2r
12r	.	.	.	.	.	.	.	.	.
12b-'^	.	.	.	.	.	.	.	.	.
12r	12r	.	.	.	.	.	.	.	.
12bbn'^	(12ff#	.	.	.	.	.	.	.	.
12r	12gggn	.	.	.	.	.	.	.	.
=5	=5	=5	=5	=5	=5	=5	=5	=5	=5
8ff'	12eee-)	2r	2r	2r	2r	2r	2r	2r	2r
.	12r	.	.	.	.	.	.	.	.
8en'	.	.	.	.	.	.	.	.	.
.	12r	.	.	.	.	.	.	.	.
8g#'	(16aan	.	.	.	.	.	.	.	.
.	16ccc#	.	.	.	.	.	.	.	.
8r	16ccn)	.	.	.	.	.	.	.	.
.	16r	.	.	.	.	.	.	.	.
=6	=6	=6	=6	=6	=6	=6	=6	=6	=6
2r	2r	8r	4r	2r	2r	2r	16r	4r	2r
.	.	.	.	.	.	.	(16ccc#	.	.
.	.	16r	.	.	.	.	16aan	.	.
.	.	16fn"	.	.	.	.	16b-)	.	.
.	.	16ff#"	16r	.	.	.	4r	8r	.
.	.	16ddn"	16eeen"	.	.	.	.	.	.
.	.	8r	16ee-"	.	.	.	.	16r	.
.	.	.	16ggn"	.	.	.	.	(16a-	.
=7	=7	=7	=7	=7	=7	=7	=7	=7	=7
4r	4r	2r	2r	2r	2r	2r	2r	16ccn	2r
.	.	.	.	.	.	.	.	16bbn)	.
.	.	.	.	.	.	.	.	8r	.
(16ccn	8r	.	.	.	.	.	.	4r	.
16bbn	.	.	.	.	.	.	.	.	.
16ee-)	(16eeen	.	.	.	.	.	.	.	.
16r	16gg#	.	.	.	.	.	.	.	.
=8	=8	=8	=8	=8	=8	=8	=8	=8	=8
2r	16gggn)	2r	2r	2r	2r	4r	2r	2r	(8aan
.	16r	.	.	.	.	.	.	.	.
.	8r	.	.	.	.	.	.	.	8fffn
.	4r	.	.	.	.	12cc#~	.	.	8ff#)
.	.	.	.	.	.	12dn~	.	.	.
.	.	.	.	.	.	.	.	.	8r
.	.	.	.	.	.	12b-~	.	.	.
=9	=9	=9	=9	=9	=9	=9	=9	=9	=9
4r	12r	2r	2r	2r	2r	2r	2r	2r	2r
.	12r	.	.	.	.	.	.	.	.
.	12ccn	.	.	.	.	.	.	.	.
(12e 12g#	12aan 12ccc#	.	.	.	.	.	.	.	.
12ffn)	12r	.	.	.	.	.	.	.	.
12r	12r	.	.	.	.	.	.	.	.
=10	=10	=10	=10	=10	=10	=10	=10	=10	=10
4r	12r	2r	2r	2r	4r	2r	2r	2r	2r
.	6ff#~ 6eee-~ 6gggn~	.	.	.	.	.	.	.	.
6b-~ 6ddn~ 6bbn~	4r	.	.	.	8r	.	.	.	.
12r	.	.	.	.	(8fn	.	.	.	.
=11	=11	=11	=11	=11	=11	=11	=11	=11	=11
4r	2r	2r	2r	2r	8ff#	2r	8r	2r	2r
.	.	.	.	.	8ddn)	.	8ccc#~	.	.
8r	.	.	.	.	4r	.	(4an	.	.
8EE-~	.	.	.	.	.	.	.	.	.
=12	=12	=12	=12	=12	=12	=12	=12	=12	=12
2r	(4Gn 4f#	4r	8aa-~	2r	2r	2r	8B-)	2r	2r
.	.	.	(4cn	.	.	.	8r	.	.
.	8bn')	8r	.	.	.	.	4r	.	.
.	8r	8een~	8bn)	.	.	.	.	.	.
=13	=13	=13	=13	=13	=13	=13	=13	=13	=13
8r	8Dn~ 8B-~	(4e-	2r	2r	2r	2r	2r	4r	2r
(8C# 8cn	8r	.	.	.	.	.	.	.	.
8r	8an 8g#	8Gn)	.	.	.	.	.	(8en	.
8Fn 8en)	8r	8r	.	.	.	.	.	8gg#')	.
=14	=14	=14	=14	=14	=14	=14	=14	=14	=14
8r	2r	2r	4r	2r	2r	(4ccn	2r	8gn~	2r
(8FF#	.	.	.	.	.	.	.	8r	.
8Gn 8e-)	.	.	8r	.	.	8Bn)	.	4r	.
8r	.	.	8ccc#~	.	.	8e-~	.	.	.
=15	=15	=15	=15	=15	=15	=15	=15	=15	=15
8r	(8ddn	4r	8r	2r	2r	2r	2r	2r	2r
8BBn	8B-)	.	(8ddn~	.	.	.	.	.	.
8r	4r	(8an	8B-~)	.	.	.	.	.	.
8an~	.	8ffn)	8r	.	.	.	.	.	.
=16	=16	=16	=16	=16	=16	=16	=16	=16	=16
8C#	(8cn	8F#~	2r	2r	2r	4r	2r	(8en	2r
8Fn	8en)	8r	.	.	.	.	.	8gg#')	.
8gg#~	4r	4r	.	.	.	(8ccn	.	8gn~	.
8r	.	.	.	.	.	8Bn)	.	8r	.
=17	=17	=17	=17	=17	=17	=17	=17	=17	=17
8FF#~	8r	2r	2r	2r	4r	8e-~	2r	2r	2r
8Gn	(8e-	.	.	.	.	8r	.	.	.
8r	8ddn)	.	.	.	12r	4r	.	.	.
.	.	.	.	.	(12e-	.	.	.	.
8BBn~	8B-~	.	.	.	.	.	.	.	.
.	.	.	.	.	12ddn	.	.	.	.
=18	=18	=18	=18	=18	=18	=18	=18	=18	=18
8r	4r	4r	12r	12Gn^	12ff#)	2r	2r	2r	2r
.	.	.	12r	12BBn^	12r	.	.	.	.
8BBn~	.	.	.	.	.	.	.	.	.
.	.	.	12cn~	12B-^	12r	.	.	.	.
8e-~	8ddn~	12r	(12g#	4r	4r	.	.	.	.
.	.	(12een	12aan)	.	.	.	.	.	.
8GGn~	8F#~	12fn)	12r	.	.	.	.	.	.
=19	=19	=19	=19	=19	=19	=19	=19	=19	=19
4r	8b-~	12cc#~	2r	2r	2r	2r	2r	6dddn~	6r
.	.	12r	.	.	.	.	.	.	.
.	8r	.	.	.	.	.	.	.	.
.	.	12r	.	.	.	.	.	6ff#~	6r
12GG#~	12An~	4r	.	.	.	.	.	.	.
12r	12r	.	.	.	.	.	.	6fn~	6bbb-
12fn~	12een~	.	.	.	.	.	.	.	.
=20	=20	=20	=20	=20	=20	=20	=20	=20	=20
12r	12r	2r	6r	2r	2r	2r	2r	2r	6aan~
12cn~	12cc#~	.	.	.	.	.	.	.	.
12r	12r	.	6bbbn	.	.	.	.	.	6cc#~
12r	12r	.	.	.	.	.	.	.	.
12r	12r	.	6cccn~	.	.	.	.	.	6r
12E-^	12Bn^ 12d^	.	.	.	.	.	.	.	.
=21	=21	=21	=21	=21	=21	=21	=21	=21	=21
12r	12r	6gn~	6aa-~	2r	2r	2r	2r	2r	6r
12gn^ 12b-^	12ff#^	.	.	.	.	.	.	.	.
12r	12r	6ee-~	6r	.	.	.	.	.	6r
12An^	12fn^ 12a-^	.	.	.	.	.	.	.	.
12r	12r	6en~	6r	.	.	.	.	.	6fffnV
12c#^ 12en^	12ccn^	.	.	.	.	.	.	.	.
=22	=22	=22	=22	=22	=22	=22	=22	=22	=22
12r	12r	2r	2r	2r	4r	2r	4r	2r	6aanV
12E^ 12G-^	12dn^	.	.	.	.	.	.	.	.
12r	12r	.	.	.	.	.	.	.	6g#V
12Bn^	12Gn^ 12B-^	.	.	.	16r	.	8r	.	.
.	.	.	.	.	(16cc#	.	.	.	.
12r	12r	.	.	.	.	.	.	.	6r
.	.	.	.	.	16cn)	.	16r	.	.
12An^ 12cn^	12g#	.	.	.	.	.	.	.	.
.	.	.	.	.	16en'	.	(16ddn	.	.
=23	=23	=23	=23	=23	=23	=23	=23	=23	=23
12r	12r	2r	4r	2r	2r	2r	16eee-)	16r	2r
.	.	.	.	.	.	.	16bbn'	16b-'	.
12fn^	12cc#^ 12een^	.	.	.	.	.	.	.	.
.	.	.	.	.	.	.	8r	(16ff#	.
12r	12r	.	.	.	.	.	.	.	.
.	.	.	.	.	.	.	.	16gn)	.
4r	4r	.	8r	.	.	.	4r	4r	.
.	.	.	16r	.	.	.	.	.	.
.	.	.	16fffn^"	.	.	.	.	.	.
=24	=24	=24	=24	=24	=24	=24	=24	=24	=24
12r	12r	4r	2r	2r	2r	2r	2r	2r	2r
12r	(12cc#	.	.	.	.	.	.	.	.
(12An	12dn)	.	.	.	.	.	.	.	.
12b-)	4r	16r	.	.	.	.	.	.	.
.	.	16f#^"	.	.	.	.	.	.	.
12r	.	.	.	.	.	.	.	.	.
.	.	8r	.	.	.	.	.	.	.
(12AA-	.	.	.	.	.	.	.	.	.
=25	=25	=25	=25	=25	=25	=25	=25	=25	=25
12Gn)	(12bn	2r	2r	2r	8r	2r	2r	2r	2r
12r	12cn)	.	.	.	.	.	.	.	.
.	.	.	.	.	16r	.	.	.	.
12r	12r	.	.	.	.	.	.	.	.
.	.	.	.	.	(8.en	.	.	.	.
4r	4r	.	.	.	.	.	.	.	.
.	.	.	.	.	8een)	.	.	.	.
=26	=26	=26	=26	=26	=26	=26	=26	=26	=26
4F#~	4r	2r	2r	2r	2r	2r	16r	2r	2r
.	.	.	.	.	.	.	(16bn	.	.
.	.	.	.	.	.	.	8.cn)	.	.
4An~	4fn~	.	.	.	.	.	.	.	.
.	.	.	.	.	.	.	8.a-~	.	.
=27	=27	=27	=27	=27	=27	=27	=27	=27	=27
4BB-~	4r	2r	8.Gn~	2r	2r	2r	2r	2r	2r
.	.	.	(8.ee-	.	.	.	.	.	.
4Dn~	4c#~	.	.	.	.	.	.	.	.
.	.	.	8en)	.	.	.	.	.	.
=28	=28	=28	=28	=28	=28	=28	=28	=28	=28
4.r	8r	2r	2r	2r	2r	2r	(16ddn	2r	2r
.	.	.	.	.	.	.	16ff#)	.	.
.	(4ee-	.	.	.	.	.	16r	.	.
.	.	.	.	.	.	.	(16fn	.	.
.	.	.	.	.	.	.	16b-)	.	.
.	.	.	.	.	.	.	8.aan	.	.
8cn	8bn)	.	.	.	.	.	.	.	.
=29	=29	=29	=29	=29	=29	=29	=29	=29	=29
8r	(8GGn	2r	32r	2r	2r	2r	2r	2r	2r
.	.	.	32d-	.	.	.	.	.	.
.	.	.	8.ccn	.	.	.	.	.	.
8G#	8en)	.	.	.	.	.	.	.	.
8r	4r	.	(8.en	.	.	.	.	.	.
8GGn~	.	.	.	.	.	.	.	.	.
.	.	.	16ffn)	.	.	.	.	.	.
=30	=30	=30	=30	=30	=30	=30	=30	=30	=30
8r	8r	2r	(16aan	2r	2r	2r	4r	2r	2r
.	.	.	8g#)	.	.	.	.	.	.
8cn~	8bn~	.	.	.	.	.	.	.	.
.	.	.	16r	.	.	.	.	.	.
4r	4r	.	4r	.	.	.	16r	.	.
.	.	.	.	.	.	.	(8bb-	.	.
.	.	.	.	.	.	.	16ff#)	.	.
=31	=31	=31	=31	=31	=31	=31	=31	=31	=31
4r	8r	2r	2r	2r	2r	2r	(8.gn	2r	2r
.	(8ee-~	.	.	.	.	.	.	.	.
.	.	.	.	.	.	.	16dn)	.	.
8Dn	8c#)	.	.	.	.	.	8.ee-	.	.
8r	8r	.	.	.	.	.	.	.	.
.	.	.	.	.	.	.	(32bn	.	.
.	.	.	.	.	.	.	[32c	.	.
=32	=32	=32	=32	=32	=32	=32	=32	=32	=32
8r	(8BB-	2r	8r	2r	2r	2r	8c]	2r	2r
8An	8fn)	.	16r	.	.	.	8r	.	.
.	.	.	(16bn	.	.	.	.	.	.
8r	4r	.	8.dd#)	.	.	.	4r	.	.
8F#	.	.	.	.	.	.	.	.	.
.	.	.	(16eeen	.	.	.	.	.	.
=33	=33	=33	=33	=33	=33	=33	=33	=33	=33
8r	8r	2r	8.gg#)	2r	2r	2r	4r	2r	2r
8E-~	8dn~	.	.	.	.	.	.	.	.
.	.	.	[16gn	.	.	.	.	.	.
4r	4r	.	16g]	.	.	.	8r	.	.
.	.	.	16r	.	.	.	.	.	.
.	.	.	8r	.	.	.	8An~	.	.
=34	=34	=34	=34	=34	=34	=34	=34	=34	=34
8r	(8BB-	2r	2r	2r	2r	2r	16r	2r	2r
.	.	.	.	.	.	.	(32fn	.	.
.	.	.	.	.	.	.	[32ff#	.	.
8Bn	8gn)	.	.	.	.	.	16.ff#])	.	.
.	.	.	.	.	.	.	(64cc#	.	.
.	.	.	.	.	.	.	[64dn	.	.
8r	(8An	.	.	.	.	.	8.d])	.	.
8cn	8a-)	.	.	.	.	.	.	.	.
.	.	.	.	.	.	.	[16b-	.	.
=35	=35	=35	=35	=35	=35	=35	=35	=35	=35
4r	8r	4r	2r	4r	2r	2r	8b-]	2r	2r
.	(8CC#	.	.	.	.	.	8r	.	.
8Fn	8en)	8r	.	(16Bn	.	.	4r	.	.
.	.	.	.	8b-)	.	.	.	.	.
8r	8r	16r	.	.	.	.	.	.	.
.	.	[16ee-~	.	16dn~	.	.	.	.	.
=36	=36	=36	=36	=36	=36	=36	=36	=36	=36
(32gg#	16.r	16ee-]	2r	2r	2r	2r	2r	2r	4r
16.gn')	.	.	.	.	.	.	.	.	.
.	.	16r	.	.	.	.	.	.	.
.	(32ccn	.	.	.	.	.	.	.	.
8r	8bbn')	8Gn~	.	.	.	.	.	.	.
8ee-'	16.r	16r	.	.	.	.	.	.	16r
.	.	8F#~"	.	.	.	.	.	.	(16gg#
.	(32cc#	.	.	.	.	.	.	.	.
8r	8dn')	.	.	.	.	.	.	.	16een
.	.	16r	.	.	.	.	.	.	16fn)
=37	=37	=37	=37	=37	=37	=37	=37	=37	=37
2r	8r	2r	8r	4r	16r	2r	4r	2r	2r
.	.	.	.	.	(16cn	.	.	.	.
.	(16.bb-	.	(16an	.	16cc#)	.	.	.	.
.	.	.	16bb-)	.	16r	.	.	.	.
.	(32an	.	.	.	.	.	.	.	.
.	8ffn')	.	4r	8r	4r	.	32r	.	.
.	.	.	.	.	.	.	(32ffn	.	.
.	.	.	.	.	.	.	16f#	.	.
.	8f#	.	.	(16En	.	.	16ddn)	.	.
.	.	.	.	16e-)	.	.	16r	.	.
=38	=38	=38	=38	=38	=38	=38	=38	=38	=38
4r	(32bb-	2r	2r	2r	2r	2r	2r	8.ggn~	4r
.	16.an')	.	.	.	.	.	.	.	.
.	8r	.	.	.	.	.	.	.	.
.	.	.	.	.	.	.	.	[16a-	.
(32d	8r	.	.	.	.	.	.	8a-]	8r
16.cc#')	.	.	.	.	.	.	.	.	.
8r	8ffn'	.	.	.	.	.	.	8ccn~	8bbn~
=39	=39	=39	=39	=39	=39	=39	=39	=39	=39
8ee-'	8r	4r	8r	2r	2r	2r	2r	2r	16r
.	.	.	.	.	.	.	.	.	(16ee-
8r	(32en	.	(16gn	.	.	.	.	.	16dn)
.	16.ccn')	.	.	.	.	.	.	.	.
.	.	.	16ff#	.	.	.	.	.	16r
8r	4r	16A-~	16b-)	.	.	.	.	.	4r
.	.	(8an	16r	.	.	.	.	.	.
8bbn~	.	.	8r	.	.	.	.	.	.
.	.	16ffn)	.	.	.	.	.	.	.
=40	=40	=40	=40	=40	=40	=40	=40	=40	=40
2r	(32gn	2r	2r	2r	4r	2r	16r	2r	2r
.	16.G#)	.	.	.	.	.	.	.	.
.	.	.	.	.	.	.	8.cccn	.	.
.	32r	.	.	.	.	.	.	.	.
.	(32ccn	.	.	.	.	.	.	.	.
.	16bbn	.	.	.	.	.	.	.	.
.	32en	.	.	.	8r	.	(8.ccn	.	.
.	16.dd#')	.	.	.	.	.	.	.	.
.	8r	.	.	.	16r	.	.	.	.
.	.	.	.	.	[16gg#	.	16ccc#)	.	.
=41	=41	=41	=41	=41	=41	=41	=41	=41	=41
16r	16.r	2r	2r	2r	16gg#]	2r	2r	4r	4r
(16gn	.	.	.	.	16r	.	.	.	.
.	(32ffn	.	.	.	.	.	.	.	.
8f#')	8f#')	.	.	.	([8an	.	.	.	.
4r	16.r	.	.	.	16a]	.	.	8r	16r
.	.	.	.	.	16ffn)	.	.	.	8gggn~
.	(32dd-	.	.	.	.	.	.	.	.
.	8c#')	.	.	.	8r	.	.	16r	.
.	.	.	.	.	.	.	.	([16bb-	16f#'^
=42	=42	=42	=42	=42	=42	=42	=42	=42	=42
4r	8..r	4r	2r	2r	2r	2r	16r	16bb-]	2r
.	.	.	.	.	.	.	(16eee-	16bn)	.
.	.	.	.	.	.	.	16ddn)	8r	.
.	.	.	.	.	.	.	16r	.	.
.	(32an	.	.	.	.	.	.	.	.
16.r	8bb-'	16r	.	.	.	.	4r	4r	.
.	.	8f#~	.	.	.	.	.	.	.
(32ddn	.	.	.	.	.	.	.	.	.
8c#')	8r	.	.	.	.	.	.	.	.
.	.	[16ff	.	.	.	.	.	.	.
=43	=43	=43	=43	=43	=43	=43	=43	=43	=43
2r	16.r	16ff]	(8.bb-	2r	2r	2r	2r	4r	2r
.	.	16r	.	.	.	.	.	.	.
.	(32f#	.	.	.	.	.	.	.	.
.	8ffn~)	8r	.	.	.	.	.	.	.
.	.	.	8.an)	.	.	.	.	.	.
.	4r	4r	.	.	.	.	.	8r	.
.	.	.	8r	.	.	.	.	16r	.
.	.	.	.	.	.	.	.	([16c#	.
=44	=44	=44	=44	=44	=44	=44	=44	=44	=44
8r	8r	2r	2r	4r	8r	2r	16r	16c#]	2r
.	.	.	.	.	.	.	16bbn'	16ccn)	.
32r	16an'	.	.	.	16r	.	(16G#	8r	.
(32gn	.	.	.	.	.	.	.	.	.
16G#)	16f	.	.	.	8.ee-~	.	16gn)	.	.
4r	4r	.	.	16r	.	.	4r	4r	.
.	.	.	.	8.en~	.	.	.	.	.
.	.	.	.	.	8r	.	.	.	.
=45	=45	=45	=45	=45	=45	=45	=45	=45	=45
2r	16.r	2r	2r	2r	2r	4r	2r	2r	2r
.	(32en	.	.	.	.	.	.	.	.
.	16dd#	.	.	.	.	.	.	.	.
.	16bbn	.	.	.	.	.	.	.	.
.	16ccn)	.	.	.	.	8gn^U	.	.	.
.	16r	.	.	.	.	.	.	.	.
.	8r	.	.	.	.	8G#^U	.	.	.
=46	=46	=46	=46	=46	=46	=46	=46	=46	=46
2r	2r	2r	2r	2r	2r	8en^U	2r	(12f#	6r
.	.	.	.	.	.	.	.	12ffn	.
.	.	.	.	.	.	8r	.	.	.
.	.	.	.	.	.	.	.	12an)	6bb-~
.	.	.	.	.	.	4r	.	4r	.
.	.	.	.	.	.	.	.	.	6ddn~
=47	=47	=47	=47	=47	=47	=47	=47	=47	=47
2r	2r	2r	2r	2r	4r	2r	4r	2r	6c#~
.	.	.	.	.	.	.	.	.	6r
.	.	.	.	.	16r	.	8r	.	.
.	.	.	.	.	(16en	.	.	.	.
.	.	.	.	.	.	.	.	.	6r
.	.	.	.	.	16ee-	.	16r	.	.
.	.	.	.	.	16gn)	.	16A-	.	.
=48	=48	=48	=48	=48	=48	=48	=48	=48	=48
4r	4r	2r	2r	2r	2r	2r	(16ccn	16r	2r
.	.	.	.	.	.	.	16bbn^)	16c#	.
.	.	.	.	.	.	.	8r	(16an	.
.	.	.	.	.	.	.	.	16bb-)	.
12r	12r	.	.	.	.	.	4r	4r	.
6f#~	6ddn^ 6ffn^	.	.	.	.	.	.	.	.
=49	=49	=49	=49	=49	=49	=49	=49	=49	=49
6B-~ 6d-~	6an~	2r	4r	2r	2r	2r	2r	2r	2r
12r	12r	.	.	.	.	.	.	.	.
4r	4r	.	8r	.	.	.	.	.	.
.	.	.	8gg#~U	.	.	.	.	.	.
=50	=50	=50	=50	=50	=50	=50	=50	=50	=50
(4EE-	4r	4r	8r	2r	2r	2r	2r	2r	2r
.	.	.	(4ccn	.	.	.	.	.	.
8Gn)	8f#	8r	.	.	.	.	.	.	.
8r	8r	8en~U	8BnU)	.	.	.	.	.	.
=51	=51	=51	=51	=51	=51	=51	=51	=51	=51
16.r	8r	(8ee-U	2r	2r	2r	4r	8r	2r	2r
(32Bn	.	.	.	.	.	.	.	.	.
8Dn~)	8b-	8gnU)	.	.	.	.	8en~	.	.
8c#	(8ccn	4r	.	.	.	8r	(8G#	.	.
8AAn	8G#	.	.	.	.	8ccn	8gn)	.	.
=52	=52	=52	=52	=52	=52	=52	=52	=52	=52
8Fn	8e)	4r	2r	2r	2r	(4Bn	2r	2r	2r
(4FF#	8r	.	.	.	.	.	.	.	.
.	8r	8cc#~U	.	.	.	8e-)	.	.	.
8Gn)	8e-	8Dn~U	.	.	.	8r	.	.	.
=53	=53	=53	=53	=53	=53	=53	=53	=53	=53
8r	8r	(32B-	2r	8r	2r	2r	4r	2r	2r
.	.	8an~	.	.	.	.	.	.	.
4Bn 4Dn	(4B-	.	.	8an~	.	.	.	.	.
.	.	16.r	.	.	.	.	.	.	.
.	.	4r	.	(8Fn	.	.	8r	.	.
8an 8ccn	8c#)	.	.	8f#)	.	.	(8en	.	.
=54	=54	=54	=54	=54	=54	=54	=54	=54	=54
4r	4r	2r	2r	2r	2r	8r	8G#)	2r	2r
.	.	.	.	.	.	(8ccn	8gn~	.	.
8Fn	(8en	.	.	.	.	8Bn)	4r	.	.
8r	8g#	.	.	.	.	8e-~	.	.	.
=55	=55	=55	=55	=55	=55	=55	=55	=55	=55
8gn	8ff#)	2r	2r	2r	2r	4r	4r	2r	2r
32ee-	8r	.	.	.	.	.	.	.	.
8dn^	.	.	.	.	.	.	.	.	.
.	16.r	.	.	.	.	12r	(12ee-	.	.
8..r	.	.	.	.	.	.	.	.	.
.	.	.	.	.	.	12r	12dn)	.	.
.	(32b-	.	.	.	.	.	.	.	.
.	8Bn^)	.	.	.	.	.	.	.	.
.	.	.	.	.	.	12gn^	12F#^	.	.
=56	=56	=56	=56	=56	=56	=56	=56	=56	=56
8r	8r	2r	2r	4r	12r	12Bn^	2r	2r	2r
.	.	.	.	.	(12ccn	12BB-^	.	.	.
8E-'	8Bn' 8dn'	.	.	.	.	.	.	.	.
.	.	.	.	.	12a-)	12r	.	.	.
8r	8r	.	.	12En^	12An^	4r	.	.	.
.	.	.	.	12FFn^	12r	.	.	.	.
8gn^' 8b-^'	8ff#'^	.	.	.	.	.	.	.	.
.	.	.	.	12C#^	12r	.	.	.	.
!! The piano part in measure 57 of the printed score has an illogical rhythm.
=57	=57	=57	=57	=57	=57	=57	=57	=57	=57
8r	8r	2r	2r	2r	2r	2r	6r	12..r	2r
8An'^	8fn'^ 8a-'^	.	.	.	.	.	.	.	.
.	.	.	.	.	.	.	.	(48ddn	.
.	.	.	.	.	.	.	6r	6f#)	.
12c#'^ 12en'^	12ccn'^	.	.	.	.	.	.	.	.
12r	12r	.	.	.	.	.	(6fn	(6b-	.
12E-'	12Bn' 12dn'	.	.	.	.	.	.	.	.
=58	=58	=58	=58	=58	=58	=58	=58	=58	=58
.	.	.	.	.	.	.	qan	.	.
12r	12r	2r	2r	2r	2r	2r	6cc#~)	6Bn)	2r
.	.	.	.	.	.	.	.	.	.
12gn'^ 12b-'^	12ff#'^	.	.	.	.	.	.	.	.
.	.	.	.	.	.	.	.	qccn	.
12r	12r	.	.	.	.	.	6Gn	6g#~	.
12An'^	12fn'^ 12a-'^	.	.	.	.	.	.	.	.
12r	12r	.	.	.	.	.	(48dd#	6r	.
.	.	.	.	.	.	.	12..en~)	.	.
12c#'^ 12en'^	12ccn'^	.	.	.	.	.	.	.	.
=59	=59	=59	=59	=59	=59	=59	=59	=59	=59
4r	4r	2r	2r	2r	2r	2r	2r	2r	6r
.	.	.	.	.	.	.	.	.	6fffnV
(8E-	8r	.	.	.	.	.	.	.	.
.	.	.	.	.	.	.	.	.	6aanV
8dn)	(8f#	.	.	.	.	.	.	.	.
=60	=60	=60	=60	=60	=60	=60	=60	=60	=60
8r	8ggn)	2r	6r	2r	2r	2r	2r	6cc#~	6gg#V
(8Bn	16.r	.	.	.	.	.	.	.	.
.	.	.	6r	.	.	.	.	6cccn~	6r
.	(32b-	.	.	.	.	.	.	.	.
8G#)	(8cccn	.	.	.	.	.	.	.	.
.	.	.	6ddddn~	.	.	.	.	6een~	6r
8r	8aan)	.	.	.	.	.	.	.	.
=61	=61	=61	=61	=61	=61	=61	=61	=61	=61
12r	12r	6r	6eee-~	2r	2r	2r	2r	2r	2r
12fn'^	12een'^	.	.	.	.	.	.	.	.
12dn'^	12cc#'^	6b-~	6bbn~	.	.	.	.	.	.
12b-'^	12aan'^	.	.	.	.	.	.	.	.
12r	12r	6ff#~	6r	.	.	.	.	.	.
12A-'^	12gn'^	.	.	.	.	.	.	.	.
=62	=62	=62	=62	=62	=62	=62	=62	=62	=62
12r	12r	6gn~	2r	2r	2r	2r	2r	2r	2r
12ccn'^	12bbn'^	.	.	.	.	.	.	.	.
12r	12r	6r	.	.	.	.	.	.	.
12en'^	12ee-'^	.	.	.	.	.	.	.	.
12r	12r	6r	.	.	.	.	.	.	.
12r	12r	.	.	.	.	.	.	.	.
!! wieder etwas lebhaft
!! Tempo quarter-note circa 80.
=63	=63	=63	=63	=63	=63	=63	=63	=63	=63
2r	2r	2r	2r	2r	4r	2r	2r	12aa-'^	2r
.	.	.	.	.	.	.	.	12r	.
.	.	.	.	.	.	.	.	12ccn'^	.
.	.	.	.	.	12r	.	.	12r	.
.	.	.	.	.	12en	.	.	12bbn'^	.
.	.	.	.	.	12ee-	.	.	12r	.
=64	=64	=64	=64	=64	=64	=64	=64	=64	=64
2r	2r	2r	2r	2r	12gn	2r	4r	2r	8fffn'^
.	.	.	.	.	12r	.	.	.	.
.	.	.	.	.	.	.	.	.	8ff#'^
.	.	.	.	.	12r	.	.	.	.
.	.	.	.	.	4r	.	(16cc#	.	8dddn'^
.	.	.	.	.	.	.	16aan	.	.
.	.	.	.	.	.	.	16b-)	.	8r
.	.	.	.	.	.	.	16r	.	.
=65	=65	=65	=65	=65	=65	=65	=65	=65	=65
2r	2r	2r	2r	2r	4r	2r	2r	8r	2r
.	.	.	.	.	.	.	.	(16bbn	.
.	.	.	.	.	.	.	.	16ccn	.
.	.	.	.	.	8gn'^	.	.	16aa-)	.
.	.	.	.	.	.	.	.	16r	.
.	.	.	.	.	8ee-'^	.	.	8r	.
=66	=66	=66	=66	=66	=66	=66	=66	=66	=66
2r	2r	2r	2r	2r	8en'^	2r	6r	2r	(12dddn
.	.	.	.	.	.	.	.	.	12ff#
.	.	.	.	.	8r	.	.	.	.
.	.	.	.	.	.	.	6b-~	.	12fffn
.	.	.	.	.	4r	.	.	.	4r
.	.	.	.	.	.	.	6aan~	.	.
=67	=67	=67	=67	=67	=67	=67	=67	=67	=67
4r	4r	2r	2r	2r	2r	2r	6cc#~	2r	2r
.	.	.	.	.	.	.	6r	.	.
16r	8r	.	.	.	.	.	.	.	.
(16gn	.	.	.	.	.	.	.	.	.
.	.	.	.	.	.	.	6r	.	.
16ee-	16r	.	.	.	.	.	.	.	.
16en)	(16bbn	.	.	.	.	.	.	.	.
=68	=68	=68	=68	=68	=68	=68	=68	=68	=68
2r	16cc#	16r	8r	2r	2r	2r	2r	2r	2r
.	16aa-)	16bb-"	.	.	.	.	.	.	.
.	8r	16gggn"	16r	.	.	.	.	.	.
.	.	16cc#"	16dddn"	.	.	.	.	.	.
.	4r	4r	16ff#"	.	.	.	.	.	.
.	.	.	16fffn"	.	.	.	.	.	.
.	.	.	8r	.	.	.	.	.	.
=69;	=69;	=69;	=69;	=69;	=69;	=69;	=69;	=69;	=69;
12ffn'^ 12aa-'^	12eeen'^	2r	2r	4r	4r	4r	4r	4r	4r
12r	12r	.	.	.	.	.	.	.	.
12c#'^	12an'^ 12ccn'^	.	.	.	.	.	.	.	.
4r	4r	.	.	12r	12r	12r	12r	12r	12r
.	.	.	.	12Gn'^	12g-'^	12e-'^	12bn'^	12bb-'^	12ddn'^
.	.	.	.	12r	12r	12r	12r	12r	12r
==	==	==	==	==	==	==	==	==	==
*-	*-	*-	*-	*-	*-	*-	*-	*-	*-
!!!AFR: serial; 12-tone
!!!AMT: simple duple
!!!AIN: clars cor flt oboe piano tromb tromp viola violn
!!!AGN: chamber
!!!ODT: 1931/-1934/
!!!EEV: 1.0
!!!YED: 1994 July 5
!!!YER: 1995 September 15
!!!VTS: 161877531
